!!!!SEGMENT: pl-wumfc--n44035_maszynski-piotr--maik-op-40-no-11.krn
!!!cenid: 18xx:4175
!!!COM: Maszyński, Piotr
!!!COM-rismID: pe41023858
!!!CDT:
!!!CNT:
!!!OTL: Maik op. 40 No. 11
!!!PDT: 1899
!!!AGN:
!!!YEC: Copyright 2022 Narodowy Instytut Fryderyka Chopina (https://polishscores.org)
!!!YEM: License CC-BY-4.0 (https://creativecommons.org/licenses/by/4.0)
!!!SMS-siglum: PL-Wumfc
!!!SMS-shelfmark: N44035
!!!SMS-shelfwork: W
!!!SMS-variant:
!!!SMS-altvar:
!!!NIFC-rismSourceID: 1001177593
!!!NIFC-rismChildID: 1001177593
!!!NIFC-islandoraID: pl-wumfc:9442
!!!URL-pdf-islandora: https://repozytorium.nifc.pl/islandora/object/pl-wumfc%3A9442/datastream/PDF/view
!!!URL-scan: https://polish.musicsources.pl/pl/lokalizacje/galeria/druki-muzyczne/12483/1 @EN{Scan on Polish Music Sources Website} @PL{Skany w portalu Dziedzictwo Muzyki Polskiej w otwartym dostępie}
!!!IIIF:
!!!ONB-nifc:
!!!AIN: 2 piano 1 vox
!!!key: F
**kern	**kern	**dynam	**kern	**text	**dynam
*part3	*part2	*	*part1	*	*
*staff3	*staff2	*	*staff1	*	*
*I"Fortepian.	*I"Fortepian.	*	*I"Śpiew.	*	*
*I'pf	*I'pf	*	*I'V	*	*
*ICklav	*ICklav	*	*ICvox	*	*
*Ipiano	*Ipiano	*	*Ivox	*	*
*clefF4	*clefG2	*	*clefG2	*	*
*k[b-]	*k[b-]	*	*k[b-]	*	*
*F:	*F:	*	*F:	*	*
*M2/4	*M2/4	*	*M2/4	*	*
=1	=1	=1	=1	=1	=1
!	!	!	!LO:TX:a:B:t=Allegro.	!	!
8C\ 8B-	8.e/L 8.cc	f	2r	.	.
8r	.	.	.	.	.
.	16c/Jk	.	.	.	.
8r	8c/	.	.	.	.
*clefG2	*	*	*	*	*
8dd'\	8bb-'\ 8fff	.	.	.	.
=2	=2	=2	=2	=2	=2
(8dd\L	(8bb-\L 8fff	.	2r	.	.
8b-\J)	8ff\J) 8ddd	.	.	.	.
(8b-/L	(8ff\L 8ddd	.	.	.	.
8g/J)	8dd\J) 8bb-	.	.	.	.
=3	=3	=3	=3	=3	=3
8c/ 8b-	8.ee\L 8.ccc	.	2r	.	.
8r	.	.	.	.	.
.	16cc\Jk	.	.	.	.
8r	8cc\	.	.	.	.
*clefF4	*	*	*	*	*
8d'\	8b-'\ 8ff	.	.	.	.
=4	=4	=4	=4	=4	=4
(8d\L	(8b-\L 8ff	.	2r	.	.
8B-\J)	8f\J) 8dd	.	.	.	.
(8B-\L	(8f/L 8dd	.	.	.	.
8G\J)	8d/J) 8b-	.	.	.	.
=5	=5	=5	=5	=5	=5
8C\ 8B-	8.e/L 8.cc	.	2r	.	.
8r	.	.	.	.	.
.	16c/Jk	.	.	.	.
8r	8c/	.	.	.	.
*clefG2	*	*	*	*	*
8b-'\	8ff'\ 8ddd	.	.	.	.
=6	=6	=6	=6	=6	=6
(8b-/L	(8ff\L 8ddd	.	2r	.	.
8c/J) 8g	8ee\J) 8ccc	.	.	.	.
(8f/L	(8dd\L 8bb-	.	.	.	.
8G/J) 8d	8b-\J) 8gg	.	.	.	.
*clefF4	*	*	*	*	*
!!LO:LB:g=original	!	!	!	!	!
=7	=7	=7	=7	=7	=7
(8B-\L	(8a\L 8ff	.	2r	.	.
8C\J) 8G	8g\J) 8ee	.	.	.	.
(8B-\L	(8f/L 8dd	.	.	.	.
8C\J) 8G	8e/J) 8cc	.	.	.	.
=8	=8	=8	=8	=8	=8
(8B-\L	(8e/L 8cc	.	2r	.	.
8C\J) 8G	8d/J) 8g	.	.	.	.
(8B-\L	(8e/L 8cc	.	.	.	.
8C\J) 8G	8d/J) 8g	.	.	.	.
=9	=9	=9	=9	=9	=9
8B-'\	(8e/L 8cc	.	2r	.	.
8r	8c/J)	>	.	.	.
4r	(8cc/L	.	.	.	.
.	8c/J)	.	.	.	.
=10	=10	=10	=10	=10	=10
2r	(8cc/L	.	2r	.	.
.	8c/)	.	.	.	.
.	(8cc/	.	.	.	.
.	8c/J)	]]	.	.	.
=11	=11	=11	=11	=11	=11
!	!	!	!	!	!LO:DY:a
8FF/L	8c/L 8a	p	8.a/	Co	mf
8C/	8A/ 8f	.	.	.	.
.	.	.	16a/	tu	.
8CC/	8B-/ 8g	.	8a/	gwa-	.
8C/J	8G/J 8e	.	8cc\	-ru!	.
=12	=12	=12	=12	=12	=12
8FF/L	8c/L 8a	.	8ff\	Co	.
8C/	8A/ 8f	.	8cc\	tu	.
8CC/	8B-/ 8g	.	8b-\	krzy-	.
8C/J	8G/J 8e	.	8g/	-ku!	.
!!LO:LB:g=original	!	!	!	!	!
=13	=13	=13	=13	=13	=13
8FF/L	8c/L 8a	.	8.a/	I-	.
8C/J	8A/ 8f	.	.	.	.
.	.	.	16a/	-dą	.
8CC/L	8B-/ 8g	.	8a/	dzie-	.
8C/J	8G/J 8e	.	8cc\	-ci	.
=14	=14	=14	=14	=14	=14
8FF/L	8c/L 8a	.	8ff\	po	.
8C/J	8A/ 8f	.	8cc\	Ma-	.
8CC/L	8B-/ 8g	.	8b-\	-i-	.
8C/J	8G/J 8e	.	8g/	-ku,	.
=15	=15	=15	=15	=15	=15
!	!	!	!	!	!LO:DY:a
8FF/L	8c/L 8a	<	4a/	I-	<
8C/J	8A/ 8f	.	.	.	.
8EE/L	8f/ 8cc	.	4cc\	-dą,	[[
8C/J	8c/J 8a	[[	.	.	.
=16	=16	=16	=16	=16	=16
8DD/L	8a\L 8ff	.	8dd\	i-	.
8C/J	8f\J 8dd	.	8dd\	-dą	.
8GG/L	8f/L 8dd	.	8dd\	wiej-	.
8F/J	8d/J 8b-	.	8b-\	-ską	.
=17	=17	=17	=17	=17	=17
*	*^	*	*	*	*
!	!	!	!	!	!	!LO:DY:a
4C/	4a/	8c\L	>	(4a/	dro-	>
.	.	8c#X\	.	.	.	.
4CC/	4B-/ 4g	8d\	.	4g/)	.	]]
.	.	8e\J	]]	.	.	.
*	*v	*v	*	*	*	*
=18	=18	=18	=18	=18	=18
4FF/	4A/ 4f	.	4f/	-gą,	.
!	!	!	!	!	!LO:DY:a
[4C#X/	[4A/ [>4f [4a	sf	[4a/	Psom	sf
!!LO:LB:g=original	!	!	!	!	!
=19	=19	=19	=19	=19	=19
8C#/L]	8A/L] 8f] 8a]	.	8a/]	.	.
(16D/L	(8d/ 8f#X	.	8f#X/	o-	.
16Cn/J	.	.	.	.	.
8BB-'/)	8d'/) 8g	.	8g/	-pę-	.
8AA'/J	8d'/J 8f# 8a	.	8a/	-dzić	.
=20	=20	=20	=20	=20	=20
8GG'/	8d'/ 8g 8b-	.	4.b-\	się	.
8r	8r	.	.	.	.
8CC'/ 8C	8e'/ 8g 8cc	.	.	.	.
8r	8r	.	8cc\	nie	.
=21	=21	=21	=21	=21	=21
*^	*	*	*	*	*
8FF/L	[2FF\	8r	f	8ff^\	mo-	.
8C/	.	(16A/LL	.	8f/	-gą!	.
.	.	16c/JJ	.	.	.	.
8BBn/	.	8f/L)	.	4r	.	.
8D/J	.	(16Bn/L	.	.	.	.
.	.	16f/JJ	.	.	.	.
=22	=22	=22	=22	=22	=22	=22
8C#X/L	2FF\]	8a/L)	.	2r	.	.
8E-X/J	.	(16A/L	.	.	.	.
.	.	16c/JJ	.	.	.	.
8D/L	.	8f#X/L)	.	.	.	.
8Fn/J	.	(16c#X/L	.	.	.	.
.	.	16g/JJ)	.	.	.	.
*v	*v	*	*	*	*	*
=23	=23	=23	=23	=23	=23
8En\L	8b-/L	.	2r	.	.
8F\J	(8B-/ 8d-X	.	.	.	.
8FF/L	8g/)	.	.	.	.
8qE/	.	.	.	.	.
8F/J	(8B-/J 8d-	.	.	.	.
=24	=24	=24	=24	=24	=24
8FF/L	8g/L)	.	2r	.	.
8qE/	.	.	.	.	.
8F/J	(8B-/ 8d-X	.	.	.	.
8FF/L	8g/)	.	.	.	.
8qE/	.	.	.	.	.
8F/J	8B-/J 8d-	.	.	.	.
!!LO:PB:g=original	!	!	!	!	!
=25	=25	=25	=25	=25	=25
!	!	!	!	!	!LO:DY:a
8FF/L	8c/L 8a	p	8.a/	Ko-	mf
8C/J	8A/ 8f	.	.	.	.
.	.	.	16a/	-szu-	.
8CC/L	8B-/ 8g	.	8a/	-li-	.
8C/J	8G/J 8e	.	8cc\	-ny	.
=26	=26	=26	=26	=26	=26
8FF/L	8c/L 8a	.	8ff\	na	.
8C/J	8A/ 8f	.	8cc\	nich	.
8CC/L	8B-/ 8g	.	8b-\	lnia-	.
8C/J	8G/J 8e	.	8g/	-ne,	.
=27	=27	=27	=27	=27	=27
8FF/L	8c/L 8a	.	8.a/	Si-	.
8C/J	8A/ 8f	.	.	.	.
.	.	.	16a/	-we	.
8CC/L	8B-/ 8g	.	8a/	świt-	.
8C/J	8G/J 8e	.	8cc\	-ki	.
=28	=28	=28	=28	=28	=28
8FF/L	8c/L 8a	.	8ff\	z weł-	.
8C/J	8A/ 8f	.	8cc\	-ny	.
8CC/L	8B-/ 8g	.	8b-\	tka-	.
8C/J	8G/J 8e	.	8g/	-ne,	.
=29	=29	=29	=29	=29	=29
!	!	!	!	!	!LO:DY:a
8FF/L	8c/L 8a	<	4a/	A	<
8C/J	8A/J 8f	.	.	.	.
8EE/L	8f/L 8cc	.	4cc\	nó-	[[
8C/J	8c/J 8a	[[	.	.	.
!!LO:LB:g=original	!	!	!	!	!
=30	=30	=30	=30	=30	=30
8DD/L	8a\L 8ff	.	8dd\	-żę-	.
8C/J	8f\J 8dd	.	8dd\	-ta	.
8GG/L	8f/L 8dd	.	8dd\	wszys-	.
8F/J	8d/J 8b-	.	8b-\	-tkie	.
=31	=31	=31	=31	=31	=31
*	*^	*	*	*	*
!	!	!	!	!	!	!LO:DY:a
(4C/	(4a/	8c\L	>	(4a/	bo-	>
.	.	8c#X\	.	.	.	.
4CC/	4B-/ 4g	8d\	.	4g/)	.	]]
.	.	8e\J	]]	.	.	.
*	*v	*v	*	*	*	*
=32	=32	=32	=32	=32	=32
4FF/)	4A/) 4f	.	4f/	-so,	.
!	!	!	!	!	!LO:DY:a
[4C#X/	[4A/ [4f [4a	sf	[4a/	Na	sf
=33	=33	=33	=33	=33	=33
8C#/L]	8A/L] 8f] 8a]	.	8a/]	.	.
(16D/L	(8d/ 8f#X	.	8f#X/	cho-	.
16Cn/J	.	.	.	.	.
8BB-'/)	8d'/) 8g	.	8g/	-ja-	.
8AA'/J	8d'/J 8f# 8a	.	8a/	-ku	.
=34	=34	=34	=34	=34	=34
8GG'/	8d'/ 8g 8b-	.	4.b-\	,,Ma-	.
8r	8r	.	.	.	.
8CC`>/ 8C	8e`>/ 8g 8cc	.	.	.	.
8r	8r	.	8cc\	-ik"	.
=35	=35	=35	=35	=35	=35
8FF'\L	8a'\L 8ff	f	8ff\	nio-	.
8A'\J	8f'\J 8cc	.	8f/	-są	.
8C'\L	8g'\L 8ee	.	4r	.	.
8G'\J	8e'\J 8cc	.	.	.	.
!!LO:LB:g=original	!	!	!	!	!
=36	=36	=36	=36	=36	=36
8GG'\L	8b-'\L 8gg	.	2r	.	.
8B-'\J	8g'\J 8dd	.	.	.	.
8D'\L	8a'\L 8ff	.	.	.	.
8A'\J	8f'\J 8dd	.	.	.	.
=37	=37	=37	=37	=37	=37
8AA/	8cc#X\L 8aa	.	2r	.	.
!	!	!LO:HP:b=2	!	!	!
(16A\LL	8a\ 8ee	<	.	.	.
16Bn\JJ	.	.	.	.	.
16c#X\LL	8cc#\ 8aa	.	.	.	.
16d\	.	.	.	.	.
16e\	8a\J 8ee	[[	.	.	.
16f#X\JJ	.	.	.	.	.
=38	=38	=38	=38	=38	=38
2g\)	8cc#X\L 8aa	.	2r	.	.
.	8a\J 8ee	>	.	.	.
.	8cc#\L 8aa	.	.	.	.
.	8a\J 8ee	]]	.	.	.
*kcancel	*kcancel	*	*kcancel	*	*
=39||	=39||	=39||	=39||	=39||	=39||
*k[f#c#]	*k[f#c#]	*	*k[f#c#]	*	*
!	!	!	!	!	!LO:DY:a
(4f#\	8dd\L 8aa	.	8.a/	A	p
.	8a\J 8ff#	.	.	.	.
.	.	.	16a/	ten	.
8e\L	8dd\L 8aa	.	8a/	Ma-	.
8d\J	8a\J 8ff#	.	8a/	-ik	.
=40	=40	=40	=40	=40	=40
4c#\	8dd\L 8aa	.	4a/	w słon-	.
.	8a\J 8ff#	.	.	.	.
4B\	8dd\L 8bb	.	4b/	-ku	.
.	8b\J 8ff#	.	.	.	.
=41	=41	=41	=41	=41	=41
2A\	8ee\L 8ccc#	.	16cc#\LL	świe-	.
.	.	.	16b\JJ	.	.
.	8cc#\J 8aa	.	[4.a/	-ci	.
.	8cc#\L 8aa	.	.	.	.
.	8a\J 8ee	.	.	.	.
!!LO:LB:g=original	!	!	!	!	!
=42	=42	=42	=42	=42	=42
2A\)	8a/L 8ee	.	2a/]	.	.
.	8e/J 8cc#	.	.	.	.
.	8e/L 8cc#	.	.	.	.
.	8c#/J 8a	.	.	.	.
=43	=43	=43	=43	=43	=43
(8E\L	8b\L 8gg	.	8.g/	W kwia-	.
8B\	8g\ 8ee	.	.	.	.
.	.	.	16g/	-ty	.
8f#\	8b\ 8gg	.	8g/	go	.
8e\J	8g\J 8ee	.	8g/	u-	.
=44	=44	=44	=44	=44	=44
4d\	8b\L 8gg	.	4g/	-bra-	.
.	8g\ 8ee	.	.	.	.
4c#\	8cc#\ 8aa	.	4a/	-ły	.
.	8a\J 8ee	.	.	.	.
=45	=45	=45	=45	=45	=45
[2B\)	8dd\L 8bb	.	16b/LL	dzie-	.
.	.	.	16a/JJ	.	.
.	8b\J 8gg	.	[4.g/	-ci	.
.	8b\L 8gg	.	.	.	.
.	8g\J 8dd	.	.	.	.
=46	=46	=46	=46	=46	=46
4B\]	8g/L 8dd	.	4g/]	.	.
.	8d/J 8b	.	.	.	.
!	!	!LO:DY:b:t=più forte	!	!	!LO:DY:a:t=più forte
4GGG/ 4GG	4B-X/ 4d 4g 4b-X	f	4g/	U-	f
=47	=47	=47	=47	=47	=47
*	*^	*	*	*	*
4AAA/ 4AA	(4.f#/ 4.a	2A\ 2c#	.	4.f#/	-bra-	.
4AA/	.	.	.	.	.	.
.	8e/ 8g	.	.	8e/	-ły	.
*	*v	*v	*	*	*	*
=48	=48	=48	=48	=48	=48
4D\	4d/) 4f#	.	4d/	go	.
4BBB-X/ 4BB-X	4d/ 4fn 4b-X 4dd	.	8dd\	i	.
.	.	.	8dd\	dziew-	.
!!LO:LB:g=original	!	!	!	!	!
=49	=49	=49	=49	=49	=49
*	*^	*	*	*	*
4CCn/ 4Cn	(4.e/ 4.a 4.ccn	2cn\	.	(4.ccn\	-czę-	.
4C/	.	.	.	.	.	.
.	8g/ 8b-X	.	.	8b-X\)	.	.
*	*v	*v	*	*	*	*
=50	=50	=50	=50	=50	=50
4Fn\	4c#/) 4fn 4a	.	4a/	-ta	.
4D\	8c#/L 8f 8a	.	8a/	Wstę-	.
.	8bn/J	.	8bn/	-ga	.
=51	=51	=51	=51	=51	=51
!	!	!	!	!	!LO:DY:a
4GG/	8Bn/L 8fn 8g	<	8g/L	na	<
.	8a/J	.	8a/J	.	.
4D\	8d/L 8f 8bn	.	8bn\L	nim	.
.	8ccn/J	.	8ccn\J	.	[[
=52	=52	=52	=52	=52	=52
*	*^	*	*	*	*
4GG/	8fn\L 8b 8dd	4ryy	.	8dd\L	prze-	.
.	8ee\J	.	.	8ee\J	.	.
4G\	8ffn/L	4f\ 4b	[	8ffn\L	-wi-	.
.	8dd/J	.	.	8dd\J	.	.
*	*v	*v	*	*	*	*
=53	=53	=53	=53	=53	=53
8C#/	8e/ 8cc#	.	[2cc#\	-nię-	.
8r	8r	.	.	.	.
*clefG2	*	*	*	*	*
(8b-X/L	(8gg\L 8ddd	f	.	.	.
8g/J)	8ee\J) 8ccc#	.	.	.	.
=54	=54	=54	=54	=54	=54
8e/L	(8dd\L 8bb-X	.	4cc#\]	.	.
8c#/J	8b-X\J) 8gg	.	.	.	.
*clefF4	*	*	*	*	*
(8B-X\L	(8g\L 8ee	.	[4cc#\	-ta.	.
8G\J)	8e\J) 8cc#	.	.	.	.
!!LO:LB:g=original	!	!	!	!	!
=55	=55	=55	=55	=55	=55
(8E/L	(8d^>/L 8b-X	.	4cc#\]	.	.
8C#/	8B-X/ 8g	.	.	.	.
8GG/	8d/ 8b-	.	4r	.	.
8C#/J)	8B-/J) 8g	.	.	.	.
=56	=56	=56	=56	=56	=56
(4CC#/	(8d^>/L 8g#X	.	2r	.	.
!	!LO:TX:i:b:t=rit.	!	!	!	!
.	8G#X/ 8e	.	.	.	.
4C#/)	8d/ 8g#	.	.	.	.
.	8G#/J) 8e	.	.	.	.
*kcancel	*kcancel	*	*kcancel	*	*
=57||	=57||	=57||	=57||	=57||	=57||
*k[b-]	*k[b-]	*	*k[b-]	*	*
!LO:TX:i:t=in tempo	!	!LO:DY:b=2	!	!	!
8FF'/L	8c/L 8a	mf	8.a/	A	mf
8C'/J	8A/J 8f	.	.	.	.
.	.	.	16a/	ten	.
(8.CC/L	8B-/L 8g	.	8a/	Ma-	.
.	8G/J 8e	.	8cc\	-ik	.
32DD/LL	.	.	.	.	.
32EE/JJJ	.	.	.	.	.
=58	=58	=58	=58	=58	=58
8FF'/L)	8c/L 8a	.	8ff\	cu-	.
8C'/J	8A/ 8f	.	8cc\	-dne	.
(8.CC/L	8B-/ 8g	.	8b-\	zie-	.
.	8G/J 8e	.	8g/	-le,	.
32DD/LL	.	.	.	.	.
32EE/JJJ	.	.	.	.	.
=59	=59	=59	=59	=59	=59
8FF'/L)	8c/L 8a	.	8.a/	Gdzie	.
8C'/J	8A/ 8f	.	.	.	.
.	.	.	16a/	on	.
(8.CC/L	8B-/ 8g	.	8a/	zaj-	.
.	8G/J 8e	.	8cc\	-dzie	.
32DD/LL	.	.	.	.	.
32EE/JJJ	.	.	.	.	.
!!LO:LB:g=original	!	!	!	!	!
=60	=60	=60	=60	=60	=60
8FF'/L)	8c/L 8a	.	8ff\	tam	.
8C'/J	8A/ 8f	.	8cc\	we-	.
(8.CC/L	8B-/ 8g	.	8b-\	-se-	.
.	8G/J 8e	.	8g/	-le,	.
32DD/LL	.	.	.	.	.
32EE/JJJ	.	.	.	.	.
=61	=61	=61	=61	=61	=61
8FF'/L)	8c/L 8a	.	4a/	Gdzie	.
8C/J	8A/J 8f	.	.	.	.
8EE/L	8f/L 8cc	.	4cc\	on	.
8C/J	8c/J 8a	.	.	.	.
=62	=62	=62	=62	=62	=62
8DD/L	8a\L 8ff	.	8dd\	zaj-	.
8C/J	8f\J 8dd	.	8dd\	-dzie	.
8GG/L	8f/L 8dd	.	8dd\	tam	.
8G/J	8d/J 8bn	.	8bn\	u-	.
=63	=63	=63	=63	=63	=63
4CC/	(8aa\L 8fff	.	[2ff\	-cie-	.
.	8ff\J) 8ddd	.	.	.	.
4C/	(8ff\L 8ccc	.	.	.	.
.	8cc\J) 8aa	.	.	.	.
=64	=64	=64	=64	=64	=64
4CC/	(8cc\L 8gg	.	2ff\]	.	.
.	8a\J) 8ff	.	.	.	.
4C/	(8f/L 8dd	.	.	.	.
.	8d/J) 8a	.	.	.	.
=65	=65	=65	=65	=65	=65
4CC/	4c/ 4f 4a 4cc	.	4cc\	-cha,	.
4r	4r	.	8a/	Aż	.
.	.	.	8b-/	się	.
=66	=66	=66	=66	=66	=66
2r	2r	.	8a/	po	.
.	.	.	8g/	wi	.
.	.	.	8a/	go-	.
.	.	.	8b-/	-nią	.
!!LO:LB:g=original	!	!	!	!	!
=67	=67	=67	=67	=67	=67
*^	*	*	*	*	*
4r	4ryy	4r	.	(4.dd;\	e-	.
!	!	!LO:TX:a:t=m.g.	!	!	!	!
4ccc>;:/	4C;>::\ 4G:: 4B-:: 4c::	4e::\ 4g:: 4b-:: 4ee::	.	.	.	.
.	.	.	.	8cc\)	.	.
=68	=68	=68	=68	=68	=68	=68
*	*	*^	*	*	*	*
!	!	!	!	!LO:HP:b:t=diminuendo	!	!	!
8r	([2FF\	(2a/ 2ff	4a\	p >	2f/	-cha!	.
4C/	.	.	.	.	.	.	.
.	.	.	4f\	.	.	.	.
[8C/	.	.	.	.	.	.	.
=69	=69	=69	=69	=69	=69	=69	=69
!	!	!LO:TX:b:i:t=poco a	!	!	!	!	!
8C/]	2FF\]	2e/ 2cc	4e\	.	2r	.	.
4C/	.	.	.	.	.	.	.
.	.	.	4c\	.	.	.	.
[8C/	.	.	.	.	.	.	.
=70	=70	=70	=70	=70	=70	=70	=70
!	!	!LO:TX:b:i:t=poco	!	!	!	!	!
8C/]	[2FF\	2B-/ 2g	4B-\	.	2r	.	.
4C/	.	.	.	.	.	.	.
.	.	.	4G\	.	.	.	.
[8C/	.	.	.	.	.	.	.
*	*	*clefF4	*	*	*	*	*
=71	=71	=71	=71	=71	=71	=71	=71
8C/]	2FF\]	2F/ 2d	4F\	.	2r	.	.
4C/	.	.	.	.	.	.	.
.	.	.	4D\	.	.	.	.
8C/	.	.	.	.	.	.	.
*	*	*v	*v	*	*	*	*
=72	=72	=72	=72	=72	=72	=72
!	!	!LO:TX:i:b:t=rit.	!	!	!	!
8r	[2FF\	[2A\ [2f [2a	>	2r	.	.
4C/	.	.	.	.	.	.
[8C/	.	.	.	.	.	.
=73	=73	=73	=73	=73	=73	=73
8C/]	2FF\_	2A\_ 2f_ 2a_	.	2r	.	.
4C/	.	.	.	.	.	.
8C/	.	.	.	.	.	.
=74	=74	=74	=74	=74	=74	=74
2C;/	2FF\])	2A;\]) 2f] 2a]	]]	2r	.	.
*v	*v	*	*	*	*	*
==	==	==	==	==	==
*-	*-	*-	*-	*-	*-
!!!system-decoration: s1{(s2,s3)}
!!!RDF**kern: > = above
!!!RDF**kern: < = below
!!!ENC: Filip Voros
!!!END: 2022-09-08
!!!ENC: Jan Barakat
!!!END: 2022-10-02!
